**kern	**silbe	**kern	**silbe	**harmony	**phrase	**leadinstrument	**rhyme	**timestamp	**harte
*ICvox	*	*ICvox	*	*M4/4	*	*	*	*	*M4/4
*VRlead	*	*VRbacking*VRharmonize	*	*	*	*	*	*	*
*Hstimme	*	*Nstimme	*	*	*	*	*	*	*
*B:	*	*B:	*	*B:	*	*	*	*	*B:
*M4/4	*	*M4/4	*	*	*	*	*	*	*
*clefG2	*	*clefG2	*	*	*	*	*	*	*
r;	.	r;	.	1r;	.	r	.	0	N.C.
=1	=1	=1	=1	=1	=1	=1	=1	=1	=1
*>Letter>A	*>Letter>A	*>Letter>A	*>Letter>A	*>Letter>A	*>Letter>A	*>Letter>A	*>Letter>A	*>Letter>A	*>Letter>A
*>Label>Intro	*>Label>Intro	*>Label>Intro	*>Label>Intro	*>Label>Intro	*>Label>Intro	*>Label>Intro	*>Label>Intro	*>Label>Intro	*>Label>Intro
1r	.	1r	.	1BM	newline	keyboard	.	0.395	B:maj
=2	=2	=2	=2	=2	=2	=2	=2	=2	=2
1r	.	1r	.	2EM	.	keyboard	.	2.515	E:sus4(b7,9)
.	.	.	.	2EM	.	keyboard	.	3.574	E:maj
=3	=3	=3	=3	=3	=3	=3	=3	=3	=3
1r	.	1r	.	1F#M	.	keyboard	.	4.634	F#:maj(9)/3
=4	=4	=4	=4	=4	=4	=4	=4	=4	=4
1r	.	1r	.	1D#mm	.	keyboard	.	6.754	D#:min7
=5	=5	=5	=5	=5	=5	=5	=5	=5	=5
1r	.	1r	.	1G#mm	newline	keyboard	.	8.874	G#:min7
=6	=6	=6	=6	=6	=6	=6	=6	=6	=6
1r	.	1r	.	1C#mm	.	keyboard	.	10.998	C#:min7
=7	=7	=7	=7	=7	=7	=7	=7	=7	=7
1r	.	1r	.	1F#M	.	keyboard	.	13.122	F#:sus4(b7,9)
=8	=8	=8	=8	=8	=8	=8	=8	=8	=8
1r	.	1r	.	2F#M	.	keyboard	.	15.245	F#:sus4(b7,9)
.	.	.	.	4EM	.	keyboard	.	16.307	E:maj
.	.	.	.	4F#M	.	keyboard	.	16.838	F#:sus4(b7,9)
=9	=9	=9	=9	=9	=9	=9	=9	=9	=9
*>Letter>A	*>Letter>A	*>Letter>A	*>Letter>A	*>Letter>A	*>Letter>A	*>Letter>A	*>Letter>A	*>Letter>A	*>Letter>A
*>Label>Verse	*>Label>Verse	*>Label>Verse	*>Label>Verse	*>Label>Verse	*>Label>Verse	*>Label>Verse	*>Label>Verse	*>Label>Verse	*>Label>Verse
4r	.	1r	.	1BM	newline	voice	.	17.369	B:maj
8r	.	.	.	.	.	.	.	.	.
8B	I	.	.	.	.	.	.	.	.
6d#	ne-	.	.	.	.	.	.	.	.
6e	-ver	.	.	.	.	.	.	.	.
6f#	knew	.	.	.	.	.	.	.	.
=10	=10	=10	=10	=10	=10	=10	=10	=10	=10
4f#	love	2f#	Ooh	2EM	.	voice	.	19.489	E:sus4(b7,9)
[4g#	like	.	.	.	.	.	.	.	.
8g#]	_	2b	_	2EM	.	voice	.	20.55	E:maj
8e	this	.	.	.	.	.	.	.	.
8d#	be-	.	.	.	.	.	.	.	.
[8e	-fore,	.	.	.	.	.	A	.	.
=11	=11	=11	=11	=11	=11	=11	=11	=11	=11
4e]	_	1cc#	.	1F#M	.	voice	.	21.61	F#:maj/3
4r	.	.	.	.	.	.	.	.	.
4c#	now	.	.	.	.	.	.	.	.
8d#	I'm	.	.	.	.	.	.	.	.
8d#	l-	.	.	.	.	.	.	.	.
=12	=12	=12	=12	=12	=12	=12	=12	=12	=12
8f#q	_	.	.	.	.	.	.	.	.
4g#	-one-	1r	.	1D#mm	.	voice	.	23.73	D#:min7
4f#	-ly	.	.	.	.	.	.	.	.
8c#q	_	.	.	.	.	.	.	.	.
4d#	ne-	.	.	.	.	.	.	.	.
8c#	-ver-	.	.	.	.	.	.	.	.
8c#	-more	.	.	.	.	.	A	.	.
=13	=13	=13	=13	=13	=13	=13	=13	=13	=13
4B	.	1r	.	1G#mm	newline	voice	.	25.85	G#:min7
4r	.	.	.	.	.	.	.	.	.
8r	.	.	.	.	.	.	.	.	.
8d#	since	.	.	.	.	.	.	.	.
8c#	you	.	.	.	.	.	.	.	.
8c#	came,	.	.	.	.	.	.	.	.
=14	=14	=14	=14	=14	=14	=14	=14	=14	=14
4B	_	1r	.	1C#mm	.	voice	.	27.972	C#:min7
8r	.	.	.	.	.	.	.	.	.
8G#	in-	.	.	.	.	.	.	.	.
8B	-to	.	.	.	.	.	.	.	.
8c#q	_	.	.	.	.	.	.	.	.
[8d#	my	.	.	.	.	.	.	.	.
8d#]	_	.	.	.	.	.	.	.	.
8c#q	_	.	.	.	.	.	.	.	.
8d#	life	.	.	.	.	.	B	.	.
=15	=15	=15	=15	=15	=15	=15	=15	=15	=15
8c#q	_	.	.	.	.	.	.	.	.
8d#	_	1r	.	1F#M	.	voice	.	30.094	F#:sus4(b7,9)
[8c#	_	.	.	.	.	.	.	.	.
2c#]	_	.	.	.	.	.	.	.	.
4r	.	.	.	.	.	.	.	.	.
=16	=16	=16	=16	=16	=16	=16	=16	=16	=16
1r	.	1r	.	1F#M	.	voice	.	32.215	F#:sus4(b7,9)
=17	=17	=17	=17	=17	=17	=17	=17	=17	=17
4r	.	1r	.	1BM	newline	voice	.	34.337	B:maj
8r	.	.	.	.	.	.	.	.	.
8~A	y-	.	.	.	.	.	.	.	.
6d#	-ou	.	.	.	.	.	.	.	.
6e	are	.	.	.	.	.	.	.	.
6f#	my	.	.	.	.	.	.	.	.
=18	=18	=18	=18	=18	=18	=18	=18	=18	=18
4f#	love-	2f#	Ooh	2EM	.	voice	.	36.459	E:sus4(b7,9)
[4g#	-light,	.	.	.	.	.	B	.	.
8g#]	_	2b	_	2EM	.	voice	.	37.519	E:maj
8e	this	.	.	.	.	.	.	.	.
8d#	I	.	.	.	.	.	.	.	.
[8e	know	.	.	.	.	.	C	.	.
=19	=19	=19	=19	=19	=19	=19	=19	=19	=19
4e]	_	1cc#	.	1F#M	.	voice	.	38.58	F#:maj/3
4r	.	.	.	.	.	.	.	.	.
8c#	And	.	.	.	.	.	.	.	.
8c#	I-	.	.	.	.	.	.	.	.
4d#	-'ll	.	.	.	.	.	.	.	.
=20	=20	=20	=20	=20	=20	=20	=20	=20	=20
8f#q	_	.	.	.	.	.	.	.	.
4g#	ne-	1r	.	1D#mm	.	voice	.	40.702	D#:min7
4f#	-ver	.	.	.	.	.	.	.	.
8c#q	_	.	.	.	.	.	.	.	.
4d#	let	.	.	.	.	.	.	.	.
8c#	you	.	.	.	.	.	.	.	.
8c#	go	.	.	.	.	.	C	.	.
=21	=21	=21	=21	=21	=21	=21	=21	=21	=21
2B	_	1r	.	1G#mm	newline	voice	.	42.823	G#:min7
8r	.	.	.	.	.	.	.	.	.
8d#	You're	.	.	.	.	.	.	.	.
8c#	my	.	.	.	.	.	.	.	.
8c#	all	.	.	.	.	.	.	.	.
=22	=22	=22	=22	=22	=22	=22	=22	=22	=22
4B	_	1r	.	1C#mm	.	voice	.	44.947	C#:min7
8r	.	.	.	.	.	.	.	.	.
8G#	You're	.	.	.	.	.	.	.	.
8B	part	.	.	.	.	.	.	.	.
8c#	_	.	.	.	.	.	.	.	.
8d#	of	.	.	.	.	.	.	.	.
8d#	me	.	.	.	.	.	.	.	.
=23	=23	=23	=23	=23	=23	=23	=23	=23	=23
16c#	_	1r	.	1F#M	.	voice	.	47.071	F#:sus4(b7,9)
16B	_	.	.	.	.	.	.	.	.
[8c#	_	.	.	.	.	.	.	.	.
2c#]	_	.	.	.	.	.	.	.	.
4r	.	.	.	.	.	.	.	.	.
=24	=24	=24	=24	=24	=24	=24	=24	=24	=24
1r	.	1r	.	1F#M	.	voice	.	49.194	F#:sus4(b7,9)
=25	=25	=25	=25	=25	=25	=25	=25	=25	=25
2r	.	1r	.	1BM	newline	voice	.	51.318	B:maj
6d#	Once	.	.	.	.	.	.	.	.
6e	I	.	.	.	.	.	.	.	.
6f#	was	.	.	.	.	.	.	.	.
=26	=26	=26	=26	=26	=26	=26	=26	=26	=26
4f#	lost	2f#	Ooh	2EM	.	voice	.	53.452	E:sus4(b7,9)
[4g#	and	.	.	.	.	.	.	.	.
8g#]	_	2b	_	2EM	.	voice	.	54.518	E:maj
8e	now	.	.	.	.	.	.	.	.
8d#	I'm	.	.	.	.	.	.	.	.
[8e	found,	.	.	.	.	.	D	.	.
=27	=27	=27	=27	=27	=27	=27	=27	=27	=27
4e]	_	1cc#	.	1F#M	.	voice	.	55.585	F#:maj/3
4r	.	.	.	.	.	.	.	.	.
8c#	then	.	.	.	.	.	.	.	.
8c#	y-	.	.	.	.	.	.	.	.
4d#	-ou	.	.	.	.	.	.	.	.
=28	=28	=28	=28	=28	=28	=28	=28	=28	=28
8f#q	_	.	.	.	.	.	.	.	.
4g#	turned	1r	.	1D#mm	.	voice	.	57.719	D#:min7
4f#	my	.	.	.	.	.	.	.	.
8c#q	_	.	.	.	.	.	.	.	.
4d#	world	.	.	.	.	.	.	.	.
8c#	a-	.	.	.	.	.	.	.	.
8c#	-round	.	.	.	.	.	D	.	.
=29	=29	=29	=29	=29	=29	=29	=29	=29	=29
2B	_	1r	.	1G#mm	newline	voice	.	59.852	G#:min7
8r	.	.	.	.	.	.	.	.	.
8d#	When	.	.	.	.	.	.	.	.
8c#	I	.	.	.	.	.	.	.	.
8c#	need,	.	.	.	.	.	.	.	.
=30	=30	=30	=30	=30	=30	=30	=30	=30	=30
4B	_	1r	.	1C#mm	.	voice	.	61.961	C#:min7
8r	.	.	.	.	.	.	.	.	.
8G#	I	.	.	.	.	.	.	.	.
8B	call	.	.	.	.	.	.	.	.
8c#	_	.	.	.	.	.	.	.	.
8d#	your	.	.	.	.	.	.	.	.
8d#	name	.	.	.	.	.	.	.	.
=31	=31	=31	=31	=31	=31	=31	=31	=31	=31
2.c#	_	1r	.	1F#M	.	voice	.	64.069	F#:sus4(b7,9)
4r	.	.	.	.	.	.	.	.	.
=32	=32	=32	=32	=32	=32	=32	=32	=32	=32
2r	.	2r	.	2.F#M	.	voice	.	66.178	F#:sus4(b7,9)
8r	.	8r	.	.	.	.	.	.	.
8B	'Cause	8d# 8f#	'Cause	.	.	.	.	.	.
8c#	I	8e 8g#	I	4D#mm	.	voice	.	67.759	D#:min7
8d#	ne-	8g# 8b	ne-	.	.	.	.	.	.
=33	=33	=33	=33	=33	=33	=33	=33	=33	=33
*>Letter>B	*>Letter>B	*>Letter>B	*>Letter>B	*>Letter>B	*>Letter>B	*>Letter>B	*>Letter>B	*>Letter>B	*>Letter>B
*>Label>Chorus	*>Label>Chorus	*>Label>Chorus	*>Label>Chorus	*>Label>Chorus	*>Label>Chorus	*>Label>Chorus	*>Label>Chorus	*>Label>Chorus	*>Label>Chorus
4d#	-ver,	4g# 4b	-ver	1EMM	newline	voice	.	68.286	E:maj7
4r	.	4r	.	.	.	.	.	.	.
4r	.	4r	.	.	.	.	.	.	.
4d#	knew	4g# 4b	knew	.	.	.	.	.	.
=34	=34	=34	=34	=34	=34	=34	=34	=34	=34
8c#	love	8f# 8a#	love	2D#mm	.	voice	.	70.426	D#:min7
8c#	l-	8f# 8a#	l-	.	.	.	.	.	.
4c#	-ike	4f# 4a#	-ike	.	.	.	.	.	.
4f#	this	4b 4dd#	this	2G#mm	.	voice	.	71.495	G#:min7
8d#	be-	8g# 8b	be-	.	.	.	.	.	.
[8B	-fore	[8e [8g#	-fore!	.	.	.	.	.	.
=35	=35	=35	=35	=35	=35	=35	=35	=35	=35
2B]	_	2e] 2g#]	_	1C#mm	.	voice	.	72.565	C#:min7
2r	.	2r	.	.	.	.	.	.	.
=36	=36	=36	=36	=36	=36	=36	=36	=36	=36
8g#	O-	2r	.	1D#mm	.	voice	.	74.704	D#:min7
8f#	-pened	.	.	.	.	.	.	.	.
8d#	my	.	.	.	.	.	.	.	.
[8f#	eyes,	.	.	.	.	.	E	.	.
8f#]	_	8r	.	.	.	.	.	.	.
8B	'cause	8d# 8f#	'Cause	.	.	.	.	.	.
8c#	I	8e 8g#	I	.	.	.	.	.	.
8d#	ne-	8g# 8b	ne-	.	.	.	.	.	.
=37	=37	=37	=37	=37	=37	=37	=37	=37	=37
8c#q	_	.	.	.	.	.	.	.	.
4d#	-ver,	4g# 4b	-ver	1EMM	newline	voice	.	76.843	E:maj7
4r	.	4r	.	.	.	.	.	.	.
4r	.	4r	.	.	.	.	.	.	.
4d#	knew	4g# 4b	knew	.	.	.	.	.	.
=38	=38	=38	=38	=38	=38	=38	=38	=38	=38
8c#	love	8f# 8a#	love	2D#mm	.	voice	.	78.954	D#:min7
8c#	l-	8f# 8a#	l-	.	.	.	.	.	.
4c#	-ike	4f# 4a#	-ike	.	.	.	.	.	.
4f#	this	4b 4dd#	this	2G#mm	.	voice	.	80.009	G#:min7
8d#	be-	8g# 8b	be-	.	.	.	.	.	.
[8B	-fore	[8e [8g#	-fore!	.	.	.	.	.	.
=39	=39	=39	=39	=39	=39	=39	=39	=39	=39
4.B]	_	2e] 2g#]	_	1C#mm	.	voice	.	81.065	C#:min7
8r	.	.	.	.	.	.	.	.	.
2r	.	2r	.	.	.	.	.	.	.
=40	=40	=40	=40	=40	=40	=40	=40	=40	=40
8g#	What	2r	.	1D#mm	.	voice	.	83.175	D#:min7
8f#	a	.	.	.	.	.	.	.	.
8d#	sur-	.	.	.	.	.	.	.	.
[8f#	-prise,	.	.	.	.	.	E	.	.
8f#]	_	8r	.	.	.	.	.	.	.
8B	'cause	8d# 8f#	'Cause	.	.	.	.	.	.
8c#	I	8e 8g#	I	.	.	.	.	.	.
8d#	ne-	8g# 8b	ne-	.	.	.	.	.	.
=41	=41	=41	=41	=41	=41	=41	=41	=41	=41
8c#q	_	.	.	.	.	.	.	.	.
4d#	-ver,	4g# 4b	-ver	1EMM	newline	voice	.	85.286	E:maj7
4r	.	4r	.	.	.	.	.	.	.
4r	.	4r	.	.	.	.	.	.	.
4d#	knew	4g# 4b	knew	.	.	.	.	.	.
=42	=42	=42	=42	=42	=42	=42	=42	=42	=42
8c#	love	8f# 8a#	love	2D#mm	.	voice	.	87.4	D#:min7
8c#	l-	8f# 8a#	l-	.	.	.	.	.	.
4c#	-ike	4f# 4a#	-ike	.	.	.	.	.	.
4f#	this	4b 4dd#	this	2G#mm	.	voice	.	88.457	G#:min7
8d#	be-	8g# 8b	be-	.	.	.	.	.	.
[8B	-fore	[8c# [8g#	-fore!	.	.	.	.	.	.
=43	=43	=43	=43	=43	=43	=43	=43	=43	=43
2B_	_	2c#_ 2g#]	_	2C#m	.	voice	.	89.514	C#:sus4(b7)
8B]	_	8c#] 8g#	_	2C#Mm	.	voice	.	90.571	C#:7
8c#	_	8c# 8a#	_	.	.	.	.	.	.
8d#	_	8d# 8b	_	.	.	.	.	.	.
16d#	_	[8e [8g# [8b	_	.	.	.	.	.	.
[16c#	_	.	.	.	.	.	.	.	.
=44	=44	=44	=44	=44	=44	=44	=44	=44	=44
2c#]	_	2e] 2g#] 2b]	_	1F#M	.	voice	.	91.628	F#:sus4(b7,9)
2r	.	2r	.	.	.	.	.	.	.
=45	=45	=45	=45	=45	=45	=45	=45	=45	=45
*>Letter>A	*>Letter>A	*>Letter>A	*>Letter>A	*>Letter>A	*>Letter>A	*>Letter>A	*>Letter>A	*>Letter>A	*>Letter>A
*>Label>Verse	*>Label>Verse	*>Label>Verse	*>Label>Verse	*>Label>Verse	*>Label>Verse	*>Label>Verse	*>Label>Verse	*>Label>Verse	*>Label>Verse
4r	.	1r	.	1BM	newline	voice	.	93.742	B:maj
8r	.	.	.	.	.	.	.	.	.
8B	This	.	.	.	.	.	.	.	.
6d#	fee-	.	.	.	.	.	.	.	.
6e	-ling's	.	.	.	.	.	.	.	.
6f#	so	.	.	.	.	.	.	.	.
=46	=46	=46	=46	=46	=46	=46	=46	=46	=46
4f#	deep	2f#	Ooh	2EM	.	voice	.	.	E:sus4(b7,9)
[4g#	in	.	.	.	.	.	.	.	.
8g#]	_	2b	_	2EM	.	voice	.	.	E:maj
8e	side	.	.	.	.	.	.	.	.
8d#	of	.	.	.	.	.	.	.	.
[8e	me,	.	.	.	.	.	F	.	.
=47	=47	=47	=47	=47	=47	=47	=47	=47	=47
4e]	_	1cc#	.	1F#M	.	voice	.	.	F#:maj/3
4r	.	.	.	.	.	.	.	.	.
4c#	such	.	.	.	.	.	.	.	.
4d#	a	.	.	.	.	.	.	.	.
=48	=48	=48	=48	=48	=48	=48	=48	=48	=48
8f#q	_	.	.	.	.	.	.	.	.
4g#	ten-	1r	.	1D#mm	.	voice	.	.	D#:min7
4f#	-der	.	.	.	.	.	.	.	.
8c#q	_	.	.	.	.	.	.	.	.
4d#	fan-	.	.	.	.	.	.	.	.
8c#	-ta-	.	.	.	.	.	.	.	.
8c#	-sy	.	.	.	.	.	F	.	.
=49	=49	=49	=49	=49	=49	=49	=49	=49	=49
4B	_	1r	.	1G#mm	newline	voice	.	102.282	G#:min7
4r	.	.	.	.	.	.	.	.	.
8r	.	.	.	.	.	.	.	.	.
8d#	You're	.	.	.	.	.	.	.	.
8c#	the	.	.	.	.	.	.	.	.
8c#	one,	.	.	.	.	.	.	.	.
=50	=50	=50	=50	=50	=50	=50	=50	=50	=50
4B	_	1r	.	1C#mm	.	voice	.	.	C#:min7
8r	.	.	.	.	.	.	.	.	.
8G#	I'm	.	.	.	.	.	.	.	.
8B	li	.	.	.	.	.	.	.	.
8c#	_	.	.	.	.	.	.	.	.
8d#	ving	.	.	.	.	.	.	.	.
8d#	for	.	.	.	.	.	.	.	.
=51	=51	=51	=51	=51	=51	=51	=51	=51	=51
16c#	_	1r	.	1F#M	.	voice	.	.	F#:sus4(b7,9)
16B	_	.	.	.	.	.	.	.	.
[8c#	_	.	.	.	.	.	.	.	.
2c#]	_	.	.	.	.	.	.	.	.
4r	.	.	.	.	.	.	.	.	.
=52	=52	=52	=52	=52	=52	=52	=52	=52	=52
1r	.	1r	.	1F#M	.	voice	.	.	F#:sus4(b7,9)
=53	=53	=53	=53	=53	=53	=53	=53	=53	=53
4r	.	1r	.	1BM	newline	voice	.	110.757	B:maj
8r	.	.	.	.	.	.	.	.	.
8~A	Y-	.	.	.	.	.	.	.	.
6d#	-ou	.	.	.	.	.	.	.	.
6e	are	.	.	.	.	.	.	.	.
6f#	my	.	.	.	.	.	.	.	.
=54	=54	=54	=54	=54	=54	=54	=54	=54	=54
4f#	sun-	2f#	Ooh	2EM	.	voice	.	.	E:sus4(b7,9)
[4g#	-light	.	.	.	.	.	.	.	.
8g#]	_	2b	_	2EM	.	voice	.	.	E:maj
8e	and	.	.	.	.	.	.	.	.
8d#	my	.	.	.	.	.	.	.	.
[8e	rain,	.	.	.	.	.	G	.	.
=55	=55	=55	=55	=55	=55	=55	=55	=55	=55
8e]	_	1cc#	.	1F#M	.	voice	.	.	F#:maj/3
8r	.	.	.	.	.	.	.	.	.
4r	.	.	.	.	.	.	.	.	.
4r	.	.	.	.	.	.	.	.	.
8r	.	.	.	.	.	.	.	.	.
8~A#	and	.	.	.	.	.	.	.	.
=56	=56	=56	=56	=56	=56	=56	=56	=56	=56
8f#q	_	.	.	.	.	.	.	.	.
4g#	time	1r	.	1D#mm	.	voice	.	.	D#:min7
4f#	could	.	.	.	.	.	.	.	.
8c#q	_	.	.	.	.	.	.	.	.
4d#	ne-	.	.	.	.	.	.	.	.
8c#	-ver	.	.	.	.	.	.	.	.
8c#	change,	.	.	.	.	.	G	.	.
=57	=57	=57	=57	=57	=57	=57	=57	=57	=57
4.B	_	1r	.	1G#mm	newline	voice	.	119.28	G#:min7
8r	.	.	.	.	.	.	.	.	.
8r	.	.	.	.	.	.	.	.	.
8d#	what	.	.	.	.	.	.	.	.
8c#	we	.	.	.	.	.	.	.	.
8c#	shared,	.	.	.	.	.	.	.	.
=58	=58	=58	=58	=58	=58	=58	=58	=58	=58
4B	_	1r	.	1C#mm	.	voice	.	.	C#:min7
8r	.	.	.	.	.	.	.	.	.
8G#	fo-	.	.	.	.	.	.	.	.
8B	-re	.	.	.	.	.	.	.	.
8c#	_	.	.	.	.	.	.	.	.
8d#	ver-	.	.	.	.	.	.	.	.
8d#	-more	.	.	.	.	.	A	.	.
=59	=59	=59	=59	=59	=59	=59	=59	=59	=59
16c#	_	1r	.	1F#M	.	voice	.	.	F#:sus4(b7,9)
16B	_	.	.	.	.	.	.	.	.
[8c#	_	.	.	.	.	.	.	.	.
2c#]	_	.	.	.	.	.	.	.	.
4r	.	.	.	.	.	.	.	.	.
=60	=60	=60	=60	=60	=60	=60	=60	=60	=60
*clefG2	*	*	*	*	*	*	*	*	*
4r	.	1r	.	1F#M	.	voice	.	.	F#:sus4(b7,9)
8r	.	.	.	.	.	.	.	.	.
8cc#	Ooh	.	.	.	.	.	.	.	.
4b	_	.	.	.	.	.	.	.	.
16.g#	_	.	.	.	.	.	.	.	.
32f#	_	.	.	.	.	.	.	.	.
16g#	_	.	.	.	.	.	.	.	.
[16f#	_	.	.	.	.	.	.	.	.
=61	=61	=61	=61	=61	=61	=61	=61	=61	=61
*clefF4	*	*	*	*	*	*	*	*	*
4f#]	_	1r	.	1BM	newline	voice	.	127.758	B:maj
8r	.	.	.	.	.	.	.	.	.
8B	I	.	.	.	.	.	.	.	.
6d#	ne-	.	.	.	.	.	.	.	.
6e	-ver	.	.	.	.	.	.	.	.
6f#	knew	.	.	.	.	.	.	.	.
=62	=62	=62	=62	=62	=62	=62	=62	=62	=62
4f#	love	2f#	Ooh	2EM	.	voice	.	.	E:sus4(b7,9)
[4g#	like	.	.	.	.	.	.	.	.
8g#]	_	2b	_	2EM	.	voice	.	.	E:maj
8e	this	.	.	.	.	.	.	.	.
8d#	be-	.	.	.	.	.	.	.	.
[8e	-fore,	.	.	.	.	.	A	.	.
=63	=63	=63	=63	=63	=63	=63	=63	=63	=63
4e]	_	1cc#	.	1F#M	.	voice	.	.	F#:maj/3
4r	.	.	.	.	.	.	.	.	.
4c#	now	.	.	.	.	.	.	.	.
8d#	I'm	.	.	.	.	.	.	.	.
8d#	l-	.	.	.	.	.	.	.	.
=64	=64	=64	=64	=64	=64	=64	=64	=64	=64
8f#q	_	.	.	.	.	.	.	.	.
4g#	-one-	1r	.	1D#mm	.	voice	.	.	D#:min7
4f#	-ly	.	.	.	.	.	.	.	.
8c#q	_	.	.	.	.	.	.	.	.
4d#	ne-	.	.	.	.	.	.	.	.
8c#	-ver-	.	.	.	.	.	.	.	.
8c#	-more,	.	.	.	.	.	A	.	.
=65	=65	=65	=65	=65	=65	=65	=65	=65	=65
[4B	_	1r	.	1G#mm	newline	voice	.	136.277	G#:min7
8.B]	_	.	.	.	.	.	.	.	.
16r	.	.	.	.	.	.	.	.	.
8r	.	.	.	.	.	.	.	.	.
8d#	since	.	.	.	.	.	.	.	.
8c#	you	.	.	.	.	.	.	.	.
8c#	came,	.	.	.	.	.	.	.	.
=66	=66	=66	=66	=66	=66	=66	=66	=66	=66
4B	_	1r	.	1C#mm	.	voice	.	.	C#:min7
8r	.	.	.	.	.	.	.	.	.
8G#	in-	.	.	.	.	.	.	.	.
8B	-to	.	.	.	.	.	.	.	.
[8d#	my	.	.	.	.	.	.	.	.
8d#]	_	.	.	.	.	.	.	.	.
8c#q	_	.	.	.	.	.	.	.	.
8d#	life	.	.	.	.	.	.	.	.
=67	=67	=67	=67	=67	=67	=67	=67	=67	=67
8c#q	_	.	.	.	.	.	.	.	.
8d#	_	1r	.	1F#M	.	voice	.	.	F#:sus4(b7,9)
[8c#	_	.	.	.	.	.	.	.	.
2c#_	_	.	.	.	.	.	.	.	.
8c#]	_	.	.	.	.	.	.	.	.
8r	.	.	.	.	.	.	.	.	.
=68	=68	=68	=68	=68	=68	=68	=68	=68	=68
2r	.	2r	.	2.F#M	.	voice	.	.	F#:sus4(b7,9)
8r	.	8r	.	.	.	.	.	.	.
8B	'Cause	8d# 8f#	'Cause	.	.	.	.	.	.
8c#	I	8e 8g#	I	4D#mm	.	voice	.	.	D#:min7
8d#	ne-	8g# 8b	ne-	.	.	.	.	.	.
=69	=69	=69	=69	=69	=69	=69	=69	=69	=69
*>Letter>B	*>Letter>B	*>Letter>B	*>Letter>B	*>Letter>B	*>Letter>B	*>Letter>B	*>Letter>B	*>Letter>B	*>Letter>B
*>Label>Chorus	*>Label>Chorus	*>Label>Chorus	*>Label>Chorus	*>Label>Chorus	*>Label>Chorus	*>Label>Chorus	*>Label>Chorus	*>Label>Chorus	*>Label>Chorus
8c#q	_	.	.	.	.	.	.	.	.
8d#	-ver,	4g# 4b	-ver	1EMM	newline	voice	.	144.757	E:maj7
8c#	_	.	.	.	.	.	.	.	.
4r	.	4r	.	.	.	.	.	.	.
4r	.	4r	.	.	.	.	.	.	.
4d#	knew	4g# 4b	knew	.	.	.	.	.	.
=70	=70	=70	=70	=70	=70	=70	=70	=70	=70
8c#	love	8f# 8a#	love	2D#mm	.	voice	.	.	D#:min7
8c#	l-	8f# 8a#	l-	.	.	.	.	.	.
4c#	-ike	4f# 4a#	-ike	.	.	.	.	.	.
4f#	this	4b 4dd#	this	2G#mm	.	voice	.	.	G#:min7
8B	be-	8g# 8b	be-	.	.	.	.	.	.
8Bq	_	.	.	.	.	.	.	.	.
8c#	-fore	[8e [8g#	-fore!	.	.	.	.	.	.
=71	=71	=71	=71	=71	=71	=71	=71	=71	=71
*clefG2	*	*	*	*	*	*	*	*	*
2B	_	2e] 2g#]	_	1C#mm	.	voice	.	.	C#:min7
2r	.	2r	.	.	.	.	.	.	.
=72	=72	=72	=72	=72	=72	=72	=72	=72	=72
8f#	O-	2r	.	1D#mm	.	voice	.	.	D#:min7
8g#	-pened	.	.	.	.	.	.	.	.
8b	my	.	.	.	.	.	.	.	.
[8b	eyes,	.	.	.	.	.	E	.	.
8b]	_	8r	.	.	.	.	.	.	.
8B	'cause	8d# 8f#	'Cause	.	.	.	.	.	.
8c#	I	8e 8g#	I	.	.	.	.	.	.
8d#	ne-	8g# 8b	ne-	.	.	.	.	.	.
=73	=73	=73	=73	=73	=73	=73	=73	=73	=73
*clefF4	*	*	*	*	*	*	*	*	*
8Bq	_	.	.	.	.	.	.	.	.
8c#	-ver,	4g# 4b	-ver	1EMM	newline	voice	.	153.275	E:maj7
8B	_	.	.	.	.	.	.	.	.
4r	.	4r	.	.	.	.	.	.	.
4r	.	4r	.	.	.	.	.	.	.
4d#	knew	4g# 4b	knew	.	.	.	.	.	.
=74	=74	=74	=74	=74	=74	=74	=74	=74	=74
8c#	love	8f# 8a#	love	2D#mm	.	voice	.	.	D#:min7
8c#	l-	8f# 8a#	l-	.	.	.	.	.	.
4c#	-ike	4f# 4a#	-ike	.	.	.	.	.	.
4f#	this	4b 4dd#	this	2G#mm	.	voice	.	.	G#:min7
8d#	be-	8g# 8b	be-	.	.	.	.	.	.
8Bq	_	.	.	.	.	.	.	.	.
8c#	-fore	[8e [8g#	-fore!	.	.	.	.	.	.
=75	=75	=75	=75	=75	=75	=75	=75	=75	=75
[2B	_	2e] 2g#]	_	1C#mm	.	voice	.	.	C#:min7
8B]	_	2r	.	.	.	.	.	.	.
8r	.	.	.	.	.	.	.	.	.
4r	.	.	.	.	.	.	.	.	.
=76	=76	=76	=76	=76	=76	=76	=76	=76	=76
*clefG2	*	*	*	*	*	*	*	*	*
8cc#	What	2r	.	1D#mm	.	voice	.	.	D#:min7
8b	a	.	.	.	.	.	.	.	.
8g#	sur-	.	.	.	.	.	.	.	.
[8b	-prise!	.	.	.	.	.	E	.	.
8b]	_	8r	.	.	.	.	.	.	.
8B	'Cause	8d# 8f#	'Cause	.	.	.	.	.	.
8c#	I	8e 8g#	I	.	.	.	.	.	.
8d#	ne-	8g# 8b	ne-	.	.	.	.	.	.
=77	=77	=77	=77	=77	=77	=77	=77	=77	=77
*clefF4	*	*	*	*	*	*	*	*	*
8c#q	_	.	.	.	.	.	.	.	.
8d#	-ver,	4g# 4b	-ver	1EMM	newline	voice	.	161.75	E:maj7
8c#	_	.	.	.	.	.	.	.	.
4r	.	4r	.	.	.	.	.	.	.
4r	.	4r	.	.	.	.	.	.	.
8c#q	_	.	.	.	.	.	.	.	.
8d#	knew	4g# 4b	knew	.	.	.	.	.	.
8c#	_	.	.	.	.	.	.	.	.
=78	=78	=78	=78	=78	=78	=78	=78	=78	=78
8c#	love	8f# 8a#	love	2D#mm	.	voice	.	.	D#:min7
8c#	l-	8f# 8a#	l-	.	.	.	.	.	.
4c#	-ike	4f# 4a#	-ike	.	.	.	.	.	.
4f#	this	4b 4dd#	this	2G#mm	.	voice	.	.	G#:min7
8B	be	8g# 8b	be-	.	.	.	.	.	.
8Bq	_	.	.	.	.	.	.	.	.
8c#	fore	[8e [8g#	-fore!	.	.	.	.	.	.
=79	=79	=79	=79	=79	=79	=79	=79	=79	=79
*clefG2	*	*	*	*	*	*	*	*	*
[2.B	_	2e] 2g#]	_	2C#m	.	voice	.	.	C#:sus4(b7)
.	.	2r	.	2C#Mm	.	voice	.	.	C#:7
16~B]	_	.	.	.	.	.	.	.	.
8r	.	.	.	.	.	.	.	.	.
[16f#	In	.	.	.	.	.	.	.	.
=80	=80	=80	=80	=80	=80	=80	=80	=80	=80
8f#]	_	2r	.	1F#M	.	voice	.	.	F#:sus4(b7,9)
8g#	side	.	.	.	.	.	.	.	.
8b	of	.	.	.	.	.	.	.	.
8cc#	me!	.	.	.	.	.	.	.	.
4.b	_	8r	.	.	.	.	.	.	.
.	.	8d# 8f#	'Cause	.	.	.	.	.	.
.	.	8e 8g#	I	.	.	.	.	.	.
8r	.	8g# 8b	ne-	.	.	.	.	.	.
=81	=81	=81	=81	=81	=81	=81	=81	=81	=81
*>Letter>B2	*>Letter>B2	*>Letter>B2	*>Letter>B2	*>Letter>B2	*>Letter>B2	*>Letter>B2	*>Letter>B2	*>Letter>B2	*>Letter>B2
*>Label>Outro	*>Label>Outro	*>Label>Outro	*>Label>Outro	*>Label>Outro	*>Label>Outro	*>Label>Outro	*>Label>Outro	*>Label>Outro	*>Label>Outro
4r	.	4g# 4b	-ver	1EMM	newline	voice	.	170.22	E:maj7
8b	Ne-	4r	.	.	.	.	.	.	.
8f#q	_	.	.	.	.	.	.	.	.
[8g#	-ver!	.	.	.	.	.	.	.	.
8g#]	_	4r	.	.	.	.	.	.	.
8r	.	.	.	.	.	.	.	.	.
8c#q	_	.	.	.	.	.	.	.	.
8d#	Knew	4g# 4b	knew	.	.	.	.	.	.
8c#	_	.	.	.	.	.	.	.	.
=82	=82	=82	=82	=82	=82	=82	=82	=82	=82
8c#	love	8f# 8a#	love	2D#mm	.	voice	.	.	D#:min7
8c#	l-	8f# 8a#	l-	.	.	.	.	.	.
4c#	-ike	4f# 4a#	-ike	.	.	.	.	.	.
4f#	this	4b 4dd#	this	2G#mm	.	voice	.	.	G#:min7
8B	be-	8g# 8b	be-	.	.	.	.	.	.
8Bq	_	.	.	.	.	.	.	.	.
8c#	-fore	[8e [8g#	-fore!	.	.	.	.	.	.
=83	=83	=83	=83	=83	=83	=83	=83	=83	=83
2.B	_	2e] 2g#]	_	1C#mm	.	voice	.	.	C#:min7
.	.	2r	.	.	.	.	.	.	.
4r	.	.	.	.	.	.	.	.	.
=84	=84	=84	=84	=84	=84	=84	=84	=84	=84
8f#	O-	1r	.	1D#mm	.	voice	.	.	D#:min7
8g#	-pened	.	.	.	.	.	.	.	.
8b	my	.	.	.	.	.	.	.	.
[8b	eyes!	.	.	.	.	.	E	.	.
4.b]	_	.	.	.	.	.	.	.	.
8r	.	.	.	.	.	.	.	.	.
=85	=85	=85	=85	=85	=85	=85	=85	=85	=85
2r	.	4r	.	1EMM	newline	voice	.	178.723	E:maj7
.	.	8a#q	_	.	.	.	.	.	.
.	.	4b	Ne	.	.	.	.	.	.
.	.	8f#q	_	.	.	.	.	.	.
4r	.	4g#	ver,	.	.	.	.	.	.
8cc#	Ne-	4r	.	.	.	.	.	.	.
[8b	-ver!	.	.	.	.	.	.	.	.
=86	=86	=86	=86	=86	=86	=86	=86	=86	=86
4b]	_	4r	.	2D#mm	.	voice	.	.	D#:min7
.	.	8cc#q	_	.	.	.	.	.	.
4r	.	4dd#	ne	.	.	.	.	.	.
.	.	8bq	_	.	.	.	.	.	.
4r	.	2cc#	ver!	2G#mm	.	voice	.	.	G#:min7
8r	.	.	.	.	.	.	.	.	.
8dd	Ne	.	.	.	.	.	.	.	.
=87	=87	=87	=87	=87	=87	=87	=87	=87	=87
16.cc#	_	2r	.	1C#mm	.	voice	.	.	C#:min7
32dd	_	.	.	.	.	.	.	.	.
16cc#	_	.	.	.	.	.	.	.	.
[16b	ver!	.	.	.	.	.	.	.	.
2b_	_	.	.	.	.	.	.	.	.
.	.	8f#	Ne-	.	.	.	.	.	.
.	.	8g#	-ver	.	.	.	.	.	.
8b]	_	4b	knew	.	.	.	.	.	.
8r	.	.	.	.	.	.	.	.	.
=88	=88	=88	=88	=88	=88	=88	=88	=88	=88
4r	.	4g# 4cc# 4ee	love	1D#mm	.	voice	.	.	D#:min7
8r	.	4b 4dd# 4ff#	like	.	.	.	.	.	.
8g#	I	.	.	.	.	.	.	.	.
8r	.	4f# 4b 4dd#	this!	.	.	.	.	.	.
8f#	ne-	.	.	.	.	.	.	.	.
8f#	-ver	4r	.	.	.	.	.	.	.
8ee	knew,	.	.	.	.	.	.	.	.
=89	=89	=89	=89	=89	=89	=89	=89	=89	=89
8dd#	_	4r	.	1EMM	newline	voice	.	187.189	E:maj7
8cc#	_	.	.	.	.	.	.	.	.
.	.	8a#q	_	.	.	.	.	.	.
4b	_	4b	_	.	.	.	.	.	.
.	.	8f#q	_	.	.	.	.	.	.
8r	.	4g#	_	.	.	.	.	.	.
16f#	ne-	.	.	.	.	.	.	.	.
16f#	-ver	.	.	.	.	.	.	.	.
8f#	knew	4r	.	.	.	.	.	.	.
8ee	_	.	.	.	.	.	.	.	.
=90	=90	=90	=90	=90	=90	=90	=90	=90	=90
8dd#	_	4r	.	2D#mm	.	voice	.	.	D#:min7
8cc#	_	.	.	.	.	.	.	.	.
.	.	8cc#q	_	.	.	.	.	.	.
4b	_	4dd#	_	.	.	.	.	.	.
.	.	8bq	_	.	.	.	.	.	.
6r	.	2cc#	_	2G#mm	.	voice	.	.	G#:min7
8bq	_	.	.	.	.	.	.	.	.
6cc#	Ne-	.	.	.	.	.	.	.	.
[6b	-ver!	.	.	.	.	.	.	.	.
=91	=91	=91	=91	=91	=91	=91	=91	=91	=91
2b]	_	2r	.	1C#mm	.	voice	.	.	C#:min7
2r	.	8f#	_	.	.	.	.	.	.
.	.	8g#	_	.	.	.	.	.	.
.	.	4b	_	.	.	.	.	.	.
=92	=92	=92	=92	=92	=92	=92	=92	=92	=92
2r	.	4g# 4cc# 4ee	_	1D#mm	.	voice	.	.	D#:min7
.	.	4b 4dd# 4ff#	_	.	.	.	.	.	.
8r	.	4f# 4b 4dd#	_	.	.	.	.	.	.
8f#	I	.	.	.	.	.	.	.	.
16f#	ne-	4r	.	.	.	.	.	.	.
16f#	-ver	.	.	.	.	.	.	.	.
8f#	knew!	.	.	.	.	.	.	.	.
=93	=93	=93	=93	=93	=93	=93	=93	=93	=93
8ee	_	4r	.	1EMM	newline	voice	.	195.719	E:maj7
8dd#	_	.	.	.	.	.	.	.	.
.	.	8a#q	_	.	.	.	.	.	.
8cc#	_	4b	Ne	.	.	.	.	.	.
8r	.	.	.	.	.	.	.	.	.
.	.	8f#q	_	.	.	.	.	.	.
8r	.	4g#	ver,	.	.	.	.	.	.
16f#	Ne-	.	.	.	.	.	.	.	.
16f#	-ver	.	.	.	.	.	.	.	.
8f#	knew!	4r	.	.	.	.	.	.	.
8ee	_	.	.	.	.	.	.	.	.
=94	=94	=94	=94	=94	=94	=94	=94	=94	=94
8dd#	_	4r	.	2D#mm	.	voice	.	.	D#:min7
8cc#	_	.	.	.	.	.	.	.	.
.	.	8cc#q	_	.	.	.	.	.	.
4b	_	4dd#	ne	.	.	.	.	.	.
.	.	8bq	_	.	.	.	.	.	.
8r	.	2cc#	ver!	2G#mm	.	voice	.	.	G#:min7
8cc#	Ne-	.	.	.	.	.	.	.	.
[4b	-ver!	.	.	.	.	.	.	.	.
=95	=95	=95	=95	=95	=95	=95	=95	=95	=95
4b]	_	2r	.	1C#mm	.	voice	.	.	C#:min7
4r	.	.	.	.	.	.	.	.	.
2r	.	8f#	Ne-	.	.	.	.	.	.
.	.	8g#	-ver	.	.	.	.	.	.
.	.	4b	knew	.	.	.	.	.	.
=96	=96	=96	=96	=96	=96	=96	=96	=96	=96
4r	.	4g# 4cc# 4ee	love	1D#mm	.	voice	.	.	D#:min7
8r	.	4b 4dd# 4ff#	like	.	.	.	.	.	.
8g#	I	.	.	.	.	.	.	.	.
16f#	ne-	4f# 4b 4dd#	this!	.	.	.	.	.	.
16f#	-ver	.	.	.	.	.	.	.	.
8f#	knew,	.	.	.	.	.	.	.	.
8g#	I	4r	.	.	.	.	.	.	.
16f#	ne-	.	.	.	.	.	.	.	.
16f#	-ver	.	.	.	.	.	.	.	.
=97	=97	=97	=97	=97	=97	=97	=97	=97	=97
8r	.	4r	.	1EMM	newline	voice	.	204.244	E:maj7
8g#	I	.	.	.	.	.	.	.	.
.	.	8a#q	_	.	.	.	.	.	.
16f#	ne-	4b	Ne	.	.	.	.	.	.
16f#	-ver	.	.	.	.	.	.	.	.
8f#	knew,	.	.	.	.	.	.	.	.
.	.	8f#q	_	.	.	.	.	.	.
8g#	I	4g#	ver,	.	.	.	.	.	.
16f#	ne-	.	.	.	.	.	.	.	.
16f#	-ver	.	.	.	.	.	.	.	.
8f#	knew,	4r	.	.	.	.	.	.	.
8g#	I	.	.	.	.	.	.	.	.
=98	=98	=98	=98	=98	=98	=98	=98	=98	=98
16f#	ne-	4r	.	2D#mm	.	voice	.	.	D#:min7
16f#	-ver	.	.	.	.	.	.	.	.
8f#	knew,	.	.	.	.	.	.	.	.
.	.	8cc#q	_	.	.	.	.	.	.
8g#	I	4dd#	ne	.	.	.	.	.	.
16f#	ne-	.	.	.	.	.	.	.	.
16f#	-ver	.	.	.	.	.	.	.	.
.	.	8bq	_	.	.	.	.	.	.
8f#	knew,	2cc#	ver!	2G#mm	.	voice	.	.	G#:min7
8g#	I	.	.	.	.	.	.	.	.
8f#	ne-	.	.	.	.	.	.	.	.
[8f#	-ver!	.	.	.	.	.	.	.	.
=99	=99	=99	=99	=99	=99	=99	=99	=99	=99
4f#]	_	1r	.	1C#mm	.	voice	.	.	C#:min7
4r	.	.	.	.	.	.	.	.	.
2r	.	.	.	.	.	.	.	.	.
r;	.	r;	.	1r;	.	r	.	208	N.C.
r;	.	r;	.	1r;	.	r	.	210	N.C.
*-	*-	*-	*-	*-	*-	*-	*-	*-	*-
!!!BillboardChartDate: 1980/12/06
!!!BillboardPeak: 6
!!!BillboardWeeksOnChart: 25
!!!COC: Stephanie Mills
!!!ENC: Nathaniel Condit-Schultz
!!!EST: Awating manual error checking and editing.
!!!OTL: Never Knew Love Like This Before
!!!RDF**chordsym: original McGill chord annotation + (implied pitch class set, with bass pitch in first position)
!!!RDF**harmony: **recip + pitch class of root + harmonic quality
!!!RDF**leadinstrument: original McGill primary instrumentation annotation
!!!RDF**phrase: newline = linebreak in original McGill transcription
!!!RDF**timestamp: McGill audio timestamp in seconds
!!!RDT: 2017/01/12/
!!!SampleActualRank: 33
!!!SampleID#: 1112
!!!SampleTargetRank: 33
